X: 39540
T: Taylor's Fancy
R: slide
M: 12/8
K: Dmixolydian
A2 G A2 B c2 A AGE|G2 E G2 A G2 E D3|
A2 G A2 B c2 A A3|1 fef g2 e d3 d2 c:|2 fef g2 e d3 d2 e||
f2 d f2 a g2 e e2 e|d2 ^c d2 e d2 c A3|
f2 d f2 a g2 e a3|1 faf gfe d3 d2e:|2 faf gfe d3 d3||

